packages/foundations/icons/Education/Globe.svg

<svg width="24" height="24" viewBox="0 0 24 24" fill="none" xmlns="http://www.w3.org/2000/svg">
<path d="M13.0923 6.4131L13.3346 6.89447H13.8999V6.4131L13.6576 6.17241L13.0923 6.4131Z" fill="#3D474D"/>
<path d="M13.1731 5.37016L13.4961 5.69108H13.7384L14.1422 6.09223L14.3038 6.49337H14.6268L14.8691 6.09223V5.37016H14.0211L13.7384 4.96902H13.3346L13.1731 5.37016Z" fill="#3D474D"/>
<path d="M11 16.9091C12.256 16.9091 13.4337 16.574 14.4486 15.9882L14.3991 15.5948C13.4083 16.198 12.2447 16.5455 11 16.5455C10.2023 16.5455 9.43792 16.4028 8.73101 16.1415V16.2011C8.75746 16.3325 8.78066 16.4493 8.80061 16.5517C9.49147 16.7835 10.2311 16.9091 11 16.9091Z" fill="#3D474D"/>
<path d="M17.4811 12.3993C17.7045 11.796 17.8461 11.1531 17.8924 10.484H17.7032L17.5029 10.7504C17.4472 11.2385 17.3378 11.7102 17.1808 12.1595L17.4811 12.3993Z" fill="#3D474D"/>
<path d="M15.9714 5.1463C16.218 5.39294 16.6179 5.39294 16.8645 5.1463L17.1398 4.87105C16.8692 4.54753 16.5736 4.24572 16.2559 3.9686L15.9714 4.25311C15.7247 4.49976 15.7247 4.89965 15.9714 5.1463Z" fill="#3D474D"/>
<path d="M11 3.09091C9.96427 3.09091 8.98177 3.31881 8.09991 3.7272L8.16566 4.08642L8.1647 4.09883C9.02254 3.68592 9.98425 3.45455 11 3.45455C11.4629 3.45455 11.9147 3.50261 12.3504 3.59401C12.4436 3.46514 12.5219 3.35836 12.5854 3.27367C12.0763 3.15414 11.5455 3.09091 11 3.09091Z" fill="#3D474D"/>
<path d="M15.3568 4.63744C14.923 4.28463 14.4457 3.98338 13.9341 3.74305L14.0908 3.97769V4.22881C14.4169 4.40384 14.7265 4.60569 15.0166 4.83143L15.3568 4.63744Z" fill="#3D474D"/>
<path fill-rule="evenodd" clip-rule="evenodd" d="M8.73101 15.6395V16.1415C6.47358 15.3072 4.80214 13.2638 4.50261 10.7973L4.53127 10.8257L5.09662 11.628L5.25815 12.3501L5.5812 12.8315L5.90426 13.1524L6.46961 13.4733L6.79267 13.6338L7.19649 13.4733H8.40795L8.56948 13.7942L8.89254 14.1954L9.05407 14.8372L8.89254 15.0779V15.479L8.73101 15.6395ZM14.3991 15.5948L14.4486 15.9882C13.4337 16.574 12.256 16.9091 11 16.9091C10.2311 16.9091 9.49147 16.7835 8.80061 16.5517C8.78066 16.4493 8.75746 16.3325 8.73101 16.2011V16.1415C9.43792 16.4028 10.2023 16.5455 11 16.5455C12.2447 16.5455 13.4083 16.198 14.3991 15.5948ZM8.1647 4.09883C7.44627 4.44464 6.80069 4.91778 6.25723 5.48899L6.46961 6.3329V8.41886L6.79267 8.73978L7.43878 9.22116L7.92337 8.90024L7.76184 8.25841L7.43878 7.6968V7.21542L7.92337 7.05496L8.40795 7.21542L9.05407 7.37588L9.29636 7.6968L9.53865 8.41886L9.70018 9.22116V9.78276L10.2655 10.6653L10.9116 11.2269L11.3155 11.628L11.0732 12.0292H10.7501L10.4271 11.628L9.94247 11.4676L9.29636 11.628L8.89254 12.0292V12.9919L9.70018 14.1954H10.7501L11.3155 13.9547L12.0423 13.7942L12.5269 13.6338L13.3346 13.7942L13.8192 13.9547L14.1422 14.5163L14.3845 15.479L14.3991 15.5948C15.6833 14.8129 16.6772 13.6012 17.1808 12.1595L17.4811 12.3993C17.7045 11.796 17.8461 11.1531 17.8924 10.484H17.7032L17.5029 10.7504C17.531 10.5042 17.5455 10.2538 17.5455 10C17.5455 9.88415 17.5424 9.769 17.5365 9.65462L17.6151 9.34097L17.7913 8.81343L17.4389 8.11005V7.48958C17.1158 6.66167 16.6377 5.91137 16.0403 5.27437L15.866 5.62214C15.6069 5.33431 15.3226 5.06958 15.0166 4.83143L15.3568 4.63744C14.923 4.28463 14.4457 3.98338 13.9341 3.74305L14.0908 3.97769V4.22881C13.5515 3.93937 12.9669 3.72332 12.3504 3.59401C12.4436 3.46514 12.5219 3.35836 12.5854 3.27367C12.0763 3.15414 11.5455 3.09091 11 3.09091C9.96427 3.09091 8.98177 3.31881 8.09991 3.7272L8.16566 4.08642L8.1647 4.09883ZM8.1647 4.09883L8.08489 5.1294V5.9317L8.48871 6.33284L9.05406 6.65376H10.5886L11.3155 6.33284L12.0423 5.45032V4.32711L12.2846 3.68527L12.3504 3.59401C11.9147 3.50261 11.4629 3.45455 11 3.45455C9.98425 3.45455 9.02254 3.68592 8.1647 4.09883ZM14.0908 4.22881C14.4169 4.40384 14.7265 4.60569 15.0166 4.83143L14.9719 4.85692L14.7076 5.12068L14.3551 4.85692L14.0908 4.50523V4.22881ZM15.866 5.62214L15.8529 5.64822L15.5886 5.99991L15.4124 6.43952L15.5886 7.05498L15.8529 7.40667L16.1173 7.84628L15.8529 8.37382L15.5886 8.81343L15.4124 9.16512L15.5886 9.69266L15.8529 10.0444L16.2935 10.3081H16.734L17.4389 10.0444L17.5365 9.65462C17.4561 8.10722 16.8382 6.70203 15.866 5.62214ZM17.5029 10.7504L17.1745 11.1873L16.9983 11.539L17.1745 12.1545L17.1808 12.1595C17.3378 11.7102 17.4472 11.2385 17.5029 10.7504ZM19 10C19 14.4183 15.4183 18 11 18C6.58172 18 3 14.4183 3 10C3 5.58172 6.58172 2 11 2C13.0118 2 14.8501 2.74258 16.2559 3.9686L15.9714 4.25311C15.7247 4.49976 15.7247 4.89965 15.9714 5.1463C16.218 5.39294 16.6179 5.39294 16.8645 5.1463L17.1398 4.87105C18.301 6.25969 19 8.04822 19 10ZM17.1398 4.87105L18.1897 3.82117C21.4514 7.54246 21.3074 13.2081 17.7577 16.7577C14.058 20.4574 8.05963 20.4574 4.35992 16.7577C4.11328 16.5111 3.71338 16.5111 3.46674 16.7577C3.22009 17.0044 3.22009 17.4043 3.46674 17.6509C7.65973 21.8439 14.4579 21.8439 18.6509 17.6509C22.8439 13.4579 22.8439 6.65973 18.6509 2.46674C18.4043 2.22009 18.0044 2.22009 17.7577 2.46674L16.2559 3.9686C16.5736 4.24572 16.8692 4.54753 17.1398 4.87105Z" fill="#3D474D"/>
<path d="M17.4389 7.48958C17.1158 6.66167 16.6377 5.91137 16.0403 5.27437L15.866 5.62214C16.8382 6.70203 17.4561 8.10722 17.5365 9.65462L17.6151 9.34097L17.7913 8.81343L17.4389 8.11005V7.48958Z" fill="#3D474D"/>
<path fill-rule="evenodd" clip-rule="evenodd" d="M8.31579 21.2105C7.61834 21.2105 6.9859 21.494 6.52941 21.9505C6.26986 22.21 6.0661 22.5264 5.9386 22.8802L5.62901 23.7392L17.3324 23.5681L16.9306 22.6883C16.7924 22.3858 16.5967 22.1159 16.3578 21.8923C15.9067 21.4699 15.2987 21.2105 14.6316 21.2105H8.31579ZM15.9262 22.3533C15.5874 22.0362 15.1322 21.8421 14.6316 21.8421H8.31579C7.79257 21.8421 7.31889 22.0542 6.97601 22.3971C6.78094 22.5921 6.6282 22.8295 6.53277 23.0943L16.3561 22.9507C16.2526 22.7241 16.1057 22.5215 15.9262 22.3533Z" fill="#3D474D"/>
<path d="M14.6316 21.8421C15.1322 21.8421 15.5874 22.0362 15.9262 22.3533C16.1057 22.5215 16.2526 22.7241 16.3561 22.9507L6.53277 23.0943C6.6282 22.8295 6.78094 22.5921 6.97601 22.3971C7.31889 22.0542 7.79257 21.8421 8.31579 21.8421H14.6316Z" fill="#3D474D"/>
</svg>

<svg xmlns="http://www.w3.org/2000/svg" fill="none" viewBox="0 0 24 24" width="100%" height="100%">
  <path fill="#3D474D" d="m13.092 6.413.243.481h.565v-.48l-.242-.242-.566.241Zm.081-1.043.323.321h.242l.404.401.162.401h.323l.242-.4V5.37h-.848l-.283-.401h-.403l-.162.401ZM11 16.91a6.877 6.877 0 0 0 3.449-.922l-.05-.393c-.99.603-2.154.95-3.399.95a6.531 6.531 0 0 1-2.269-.404v.06l.07.35c.69.233 1.43.358 2.199.358Zm6.481-4.51a6.876 6.876 0 0 0 .411-1.916h-.189l-.2.266c-.056.489-.165.96-.322 1.41l.3.24Zm-1.51-7.254a.631.631 0 0 0 .893 0l.276-.275a8.057 8.057 0 0 0-.884-.902l-.285.284a.631.631 0 0 0 0 .893ZM11 3.09a6.883 6.883 0 0 0-2.9.637l.066.36-.001.012a6.573 6.573 0 0 1 4.186-.505c.093-.129.17-.236.234-.32A6.93 6.93 0 0 0 11 3.09Zm4.357 1.547a6.915 6.915 0 0 0-1.423-.894l.157.235v.25c.326.176.636.378.926.603l.34-.194Z"/>
  <path fill="#3D474D" fill-rule="evenodd" d="M8.731 15.64v.502a6.552 6.552 0 0 1-4.228-5.345l.028.029.566.802.161.722.323.482.323.32.566.321.323.16.403-.16h1.212l.161.321.324.401.161.642-.161.24v.402l-.162.16Zm5.668-.045.05.393A6.877 6.877 0 0 1 11 16.91a6.902 6.902 0 0 1-2.2-.357 58.21 58.21 0 0 0-.069-.35v-.06a6.531 6.531 0 0 0 2.269.404 6.515 6.515 0 0 0 3.4-.951ZM8.165 4.099a6.564 6.564 0 0 0-1.908 1.39l.213.844v2.086l.323.32.646.482.484-.32-.161-.643-.323-.561v-.482l.484-.16.485.16.646.16.242.322.243.722.161.802v.562l.566.882.646.562.403.401-.242.401h-.323l-.323-.401-.485-.16-.646.16-.403.401v.963l.807 1.203h1.05l.566-.24.726-.16.485-.161.808.16.484.16.323.562.242.963.015.116a6.565 6.565 0 0 0 2.782-3.436l.3.24a6.876 6.876 0 0 0 .411-1.915h-.189l-.2.266a6.616 6.616 0 0 0 .034-1.095l.078-.314.176-.528-.352-.703v-.62a6.915 6.915 0 0 0-1.399-2.216l-.174.348a6.583 6.583 0 0 0-.85-.79l.34-.195a6.915 6.915 0 0 0-1.422-.894l.157.235v.25a6.5 6.5 0 0 0-1.74-.634c.093-.129.17-.236.234-.32a6.93 6.93 0 0 0-4.485.453l.066.36-.001.012Zm0 0-.08 1.03v.803l.404.4.565.322h1.535l.726-.321.727-.883V4.327l.243-.642.065-.091a6.573 6.573 0 0 0-4.185.505Zm5.926.13c.326.175.636.377.926.602l-.045.026-.264.264-.353-.264-.264-.352V4.23Zm1.775 1.393-.013.026-.264.352-.177.44.177.615.264.352.264.44-.264.527-.264.44-.177.351.177.528.264.351.44.264h.441l.705-.264.098-.39a6.52 6.52 0 0 0-1.671-4.032Zm1.637 5.128-.329.437-.176.352.176.616.007.005c.157-.45.266-.921.322-1.41ZM19 10a8 8 0 1 1-2.744-6.031l-.285.284a.631.631 0 1 0 .893.893l.276-.275A7.968 7.968 0 0 1 19 10Zm-1.86-5.129 1.05-1.05A9.474 9.474 0 0 1 4.36 16.758a.632.632 0 0 0-.893.893c4.193 4.193 10.99 4.193 15.184 0 4.193-4.193 4.193-10.991 0-15.184a.632.632 0 0 0-.893 0l-1.502 1.502c.318.277.613.579.884.902Z" clip-rule="evenodd"/>
  <path fill="#3D474D" d="M17.439 7.49a6.915 6.915 0 0 0-1.399-2.216l-.174.348a6.52 6.52 0 0 1 1.67 4.033l.08-.314.175-.528-.352-.703v-.62Z"/>
  <path fill="#3D474D" fill-rule="evenodd" d="M8.316 21.21a2.52 2.52 0 0 0-2.377 1.67l-.31.86 11.703-.172-.401-.88a2.532 2.532 0 0 0-2.3-1.477H8.317Zm7.61 1.143a1.888 1.888 0 0 0-1.294-.51H8.316a1.889 1.889 0 0 0-1.783 1.251l9.823-.143a1.903 1.903 0 0 0-.43-.598Z" clip-rule="evenodd"/>
  <path fill="#3D474D" d="M14.632 21.842a1.888 1.888 0 0 1 1.724 1.109l-9.823.143a1.895 1.895 0 0 1 1.783-1.252h6.316Z"/>
</svg>
